images/3233363.svg

<?xml version="1.0" encoding="UTF-8"?>
<svg xmlns="http://www.w3.org/2000/svg" xmlns:xlink="http://www.w3.org/1999/xlink" width="300pt" height="300pt" viewBox="0 0 300 300" version="1.1">
<defs>
<g>
<symbol overflow="visible" id="glyph0-0">
<path style="stroke:none;" d="M 0.59375 2.125 L 0.59375 -8.46875 L 6.59375 -8.46875 L 6.59375 2.125 Z M 1.265625 1.453125 L 5.9375 1.453125 L 5.9375 -7.78125 L 1.265625 -7.78125 Z M 1.265625 1.453125 "/>
</symbol>
<symbol overflow="visible" id="glyph0-1">
<path style="stroke:none;" d="M 1.171875 -8.75 L 2.765625 -8.75 L 6.65625 -1.4375 L 6.65625 -8.75 L 7.796875 -8.75 L 7.796875 0 L 6.203125 0 L 2.328125 -7.3125 L 2.328125 0 L 1.171875 0 Z M 1.171875 -8.75 "/>
</symbol>
<symbol overflow="visible" id="glyph0-2">
<path style="stroke:none;" d="M 1.171875 -8.75 L 2.359375 -8.75 L 2.359375 -5.15625 L 6.65625 -5.15625 L 6.65625 -8.75 L 7.84375 -8.75 L 7.84375 0 L 6.65625 0 L 6.65625 -4.171875 L 2.359375 -4.171875 L 2.359375 0 L 1.171875 0 Z M 1.171875 -8.75 "/>
</symbol>
<symbol overflow="visible" id="glyph0-3">
<path style="stroke:none;" d="M 4.734375 -7.953125 C 3.867188 -7.953125 3.179688 -7.628906 2.671875 -6.984375 C 2.171875 -6.347656 1.921875 -5.472656 1.921875 -4.359375 C 1.921875 -3.265625 2.171875 -2.394531 2.671875 -1.75 C 3.179688 -1.113281 3.867188 -0.796875 4.734375 -0.796875 C 5.585938 -0.796875 6.265625 -1.113281 6.765625 -1.75 C 7.273438 -2.394531 7.53125 -3.265625 7.53125 -4.359375 C 7.53125 -5.472656 7.273438 -6.347656 6.765625 -6.984375 C 6.265625 -7.628906 5.585938 -7.953125 4.734375 -7.953125 Z M 4.734375 -8.90625 C 5.953125 -8.90625 6.925781 -8.492188 7.65625 -7.671875 C 8.394531 -6.847656 8.765625 -5.742188 8.765625 -4.359375 C 8.765625 -2.984375 8.394531 -1.882812 7.65625 -1.0625 C 6.925781 -0.238281 5.953125 0.171875 4.734375 0.171875 C 3.503906 0.171875 2.519531 -0.238281 1.78125 -1.0625 C 1.039062 -1.882812 0.671875 -2.984375 0.671875 -4.359375 C 0.671875 -5.742188 1.039062 -6.847656 1.78125 -7.671875 C 2.519531 -8.492188 3.503906 -8.90625 4.734375 -8.90625 Z M 4.734375 -8.90625 "/>
</symbol>
</g>
</defs>
<g id="surface40621">
<rect x="0" y="0" width="300" height="300" style="fill:rgb(100%,100%,100%);fill-opacity:1;stroke:none;"/>
<path style="fill:none;stroke-width:1.2;stroke-linecap:butt;stroke-linejoin:miter;stroke:rgb(0%,0%,0%);stroke-opacity:1;stroke-miterlimit:10;" d="M 47.851562 123.769531 L 51.832031 137.9375 "/>
<path style="fill:none;stroke-width:1.2;stroke-linecap:butt;stroke-linejoin:miter;stroke:rgb(0%,0%,100%);stroke-opacity:1;stroke-miterlimit:10;" d="M 51.832031 137.9375 L 55.8125 152.109375 "/>
<path style="fill:none;stroke-width:1.2;stroke-linecap:butt;stroke-linejoin:miter;stroke:rgb(0%,0%,100%);stroke-opacity:1;stroke-miterlimit:10;" d="M 55.8125 152.109375 L 45.53125 162.640625 "/>
<path style="fill:none;stroke-width:1.2;stroke-linecap:butt;stroke-linejoin:miter;stroke:rgb(0%,0%,0%);stroke-opacity:1;stroke-miterlimit:10;" d="M 45.53125 162.640625 L 35.25 173.171875 "/>
<path style="fill:none;stroke-width:1.2;stroke-linecap:butt;stroke-linejoin:miter;stroke:rgb(0%,0%,100%);stroke-opacity:1;stroke-miterlimit:10;" d="M 55.8125 152.109375 L 70.074219 155.746094 "/>
<path style="fill:none;stroke-width:1.2;stroke-linecap:butt;stroke-linejoin:miter;stroke:rgb(0%,0%,0%);stroke-opacity:1;stroke-miterlimit:10;" d="M 70.074219 155.746094 L 84.332031 159.382812 "/>
<path style=" stroke:none;fill-rule:nonzero;fill:rgb(100%,100%,100%);fill-opacity:1;" d="M 51.8125 145.109375 L 60.8125 145.109375 L 60.8125 159.109375 L 51.8125 159.109375 Z M 51.8125 145.109375 "/>
<g style="fill:rgb(0%,0%,100%);fill-opacity:1;">
  <use xlink:href="#glyph0-1" x="51.8125" y="156.248047"/>
</g>
<path style="fill:none;stroke-width:1.2;stroke-linecap:butt;stroke-linejoin:miter;stroke:rgb(0%,0%,0%);stroke-opacity:1;stroke-miterlimit:10;" d="M 84.332031 159.382812 L 104.894531 138.320312 "/>
<path style="fill:none;stroke-width:1.2;stroke-linecap:butt;stroke-linejoin:miter;stroke:rgb(0%,0%,0%);stroke-opacity:1;stroke-miterlimit:10;" d="M 91.347656 162.117188 L 107.796875 145.265625 "/>
<path style="fill:none;stroke-width:1.2;stroke-linecap:butt;stroke-linejoin:miter;stroke:rgb(0%,0%,0%);stroke-opacity:1;stroke-miterlimit:10;" d="M 92.292969 187.722656 L 84.332031 159.382812 "/>
<path style="fill:none;stroke-width:1.2;stroke-linecap:butt;stroke-linejoin:miter;stroke:rgb(0%,0%,0%);stroke-opacity:1;stroke-miterlimit:10;" d="M 104.894531 138.320312 L 133.417969 145.597656 "/>
<path style="fill:none;stroke-width:1.2;stroke-linecap:butt;stroke-linejoin:miter;stroke:rgb(0%,0%,0%);stroke-opacity:1;stroke-miterlimit:10;" d="M 133.417969 145.597656 L 141.378906 173.933594 "/>
<path style="fill:none;stroke-width:1.2;stroke-linecap:butt;stroke-linejoin:miter;stroke:rgb(0%,0%,0%);stroke-opacity:1;stroke-miterlimit:10;" d="M 127.546875 150.304688 L 133.914062 172.972656 "/>
<path style="fill:none;stroke-width:1.2;stroke-linecap:butt;stroke-linejoin:miter;stroke:rgb(0%,0%,0%);stroke-opacity:1;stroke-miterlimit:10;" d="M 141.378906 173.933594 L 120.816406 195 "/>
<path style="fill:none;stroke-width:1.2;stroke-linecap:butt;stroke-linejoin:miter;stroke:rgb(0%,0%,0%);stroke-opacity:1;stroke-miterlimit:10;" d="M 141.378906 173.933594 L 169.898438 181.210938 "/>
<path style="fill:none;stroke-width:1.2;stroke-linecap:butt;stroke-linejoin:miter;stroke:rgb(0%,0%,0%);stroke-opacity:1;stroke-miterlimit:10;" d="M 120.816406 195 L 92.292969 187.722656 "/>
<path style="fill:none;stroke-width:1.2;stroke-linecap:butt;stroke-linejoin:miter;stroke:rgb(0%,0%,0%);stroke-opacity:1;stroke-miterlimit:10;" d="M 119.675781 187.558594 L 96.859375 181.738281 "/>
<path style="fill:none;stroke-width:1.2;stroke-linecap:butt;stroke-linejoin:miter;stroke:rgb(0%,0%,0%);stroke-opacity:1;stroke-miterlimit:10;" d="M 169.898438 181.210938 L 173.878906 195.378906 "/>
<path style="fill:none;stroke-width:1.2;stroke-linecap:butt;stroke-linejoin:miter;stroke:rgb(0%,0%,100%);stroke-opacity:1;stroke-miterlimit:10;" d="M 173.878906 195.378906 L 177.859375 209.550781 "/>
<path style="fill:none;stroke-width:1.2;stroke-linecap:butt;stroke-linejoin:miter;stroke:rgb(0%,0%,0%);stroke-opacity:1;stroke-miterlimit:10;" d="M 177.363281 182.171875 L 180.546875 193.507812 "/>
<path style="fill:none;stroke-width:1.2;stroke-linecap:butt;stroke-linejoin:miter;stroke:rgb(0%,0%,100%);stroke-opacity:1;stroke-miterlimit:10;" d="M 180.546875 193.507812 L 183.730469 204.84375 "/>
<path style="fill:none;stroke-width:1.2;stroke-linecap:butt;stroke-linejoin:miter;stroke:rgb(0%,0%,100%);stroke-opacity:1;stroke-miterlimit:10;" d="M 190.460938 160.148438 L 180.179688 170.679688 "/>
<path style="fill:none;stroke-width:1.2;stroke-linecap:butt;stroke-linejoin:miter;stroke:rgb(0%,0%,0%);stroke-opacity:1;stroke-miterlimit:10;" d="M 180.179688 170.679688 L 169.898438 181.210938 "/>
<path style="fill:none;stroke-width:1.2;stroke-linecap:butt;stroke-linejoin:miter;stroke:rgb(0%,0%,100%);stroke-opacity:1;stroke-miterlimit:10;" d="M 177.859375 209.550781 L 192.121094 213.1875 "/>
<path style="fill:none;stroke-width:1.2;stroke-linecap:butt;stroke-linejoin:miter;stroke:rgb(0%,0%,0%);stroke-opacity:1;stroke-miterlimit:10;" d="M 192.121094 213.1875 L 206.382812 216.824219 "/>
<path style=" stroke:none;fill-rule:nonzero;fill:rgb(100%,100%,100%);fill-opacity:1;" d="M 173.859375 202.550781 L 182.859375 202.550781 L 182.859375 216.550781 L 173.859375 216.550781 Z M 173.859375 202.550781 "/>
<g style="fill:rgb(0%,0%,100%);fill-opacity:1;">
  <use xlink:href="#glyph0-1" x="173.859375" y="213.689453"/>
</g>
<path style="fill:none;stroke-width:1.2;stroke-linecap:butt;stroke-linejoin:miter;stroke:rgb(0%,0%,0%);stroke-opacity:1;stroke-miterlimit:10;" d="M 206.382812 216.824219 L 214.339844 245.164062 "/>
<path style="fill:none;stroke-width:1.2;stroke-linecap:butt;stroke-linejoin:miter;stroke:rgb(0%,0%,0%);stroke-opacity:1;stroke-miterlimit:10;" d="M 213.84375 217.785156 L 220.210938 240.457031 "/>
<path style="fill:none;stroke-width:1.2;stroke-linecap:butt;stroke-linejoin:miter;stroke:rgb(0%,0%,0%);stroke-opacity:1;stroke-miterlimit:10;" d="M 226.941406 195.761719 L 206.382812 216.824219 "/>
<path style="fill:none;stroke-width:1.2;stroke-linecap:butt;stroke-linejoin:miter;stroke:rgb(0%,0%,0%);stroke-opacity:1;stroke-miterlimit:10;" d="M 214.339844 245.164062 L 242.863281 252.441406 "/>
<path style="fill:none;stroke-width:1.2;stroke-linecap:butt;stroke-linejoin:miter;stroke:rgb(0%,0%,0%);stroke-opacity:1;stroke-miterlimit:10;" d="M 242.863281 252.441406 L 263.425781 231.378906 "/>
<path style="fill:none;stroke-width:1.2;stroke-linecap:butt;stroke-linejoin:miter;stroke:rgb(0%,0%,0%);stroke-opacity:1;stroke-miterlimit:10;" d="M 239.964844 245.496094 L 256.414062 228.644531 "/>
<path style="fill:none;stroke-width:1.2;stroke-linecap:butt;stroke-linejoin:miter;stroke:rgb(0%,0%,0%);stroke-opacity:1;stroke-miterlimit:10;" d="M 263.425781 231.378906 L 255.464844 203.039062 "/>
<path style="fill:none;stroke-width:1.2;stroke-linecap:butt;stroke-linejoin:miter;stroke:rgb(0%,0%,0%);stroke-opacity:1;stroke-miterlimit:10;" d="M 255.464844 203.039062 L 226.941406 195.761719 "/>
<path style="fill:none;stroke-width:1.2;stroke-linecap:butt;stroke-linejoin:miter;stroke:rgb(0%,0%,0%);stroke-opacity:1;stroke-miterlimit:10;" d="M 250.902344 209.023438 L 228.082031 203.203125 "/>
<path style="fill:none;stroke-width:1.2;stroke-linecap:butt;stroke-linejoin:miter;stroke:rgb(0%,0%,0%);stroke-opacity:1;stroke-miterlimit:10;" d="M 226.941406 195.761719 L 218.984375 167.425781 "/>
<path style="fill:none;stroke-width:1.2;stroke-linecap:butt;stroke-linejoin:miter;stroke:rgb(0%,0%,0%);stroke-opacity:1;stroke-miterlimit:10;" d="M 218.984375 167.425781 L 204.722656 163.785156 "/>
<path style="fill:none;stroke-width:1.2;stroke-linecap:butt;stroke-linejoin:miter;stroke:rgb(0%,0%,100%);stroke-opacity:1;stroke-miterlimit:10;" d="M 204.722656 163.785156 L 190.460938 160.148438 "/>
<path style="fill:none;stroke-width:1.2;stroke-linecap:butt;stroke-linejoin:miter;stroke:rgb(0%,0%,0%);stroke-opacity:1;stroke-miterlimit:10;" d="M 214.417969 173.40625 L 203.011719 170.496094 "/>
<path style="fill:none;stroke-width:1.2;stroke-linecap:butt;stroke-linejoin:miter;stroke:rgb(0%,0%,100%);stroke-opacity:1;stroke-miterlimit:10;" d="M 203.011719 170.496094 L 191.601562 167.585938 "/>
<path style="fill:none;stroke-width:1.2;stroke-linecap:butt;stroke-linejoin:miter;stroke:rgb(0%,0%,0%);stroke-opacity:1;stroke-miterlimit:10;" d="M 218.984375 167.425781 L 229.265625 156.894531 "/>
<path style="fill:none;stroke-width:1.2;stroke-linecap:butt;stroke-linejoin:miter;stroke:rgb(0%,0%,100%);stroke-opacity:1;stroke-miterlimit:10;" d="M 229.265625 156.894531 L 239.546875 146.363281 "/>
<path style=" stroke:none;fill-rule:nonzero;fill:rgb(100%,100%,100%);fill-opacity:1;" d="M 186.460938 153.148438 L 195.460938 153.148438 L 195.460938 167.148438 L 186.460938 167.148438 Z M 186.460938 153.148438 "/>
<g style="fill:rgb(0%,0%,100%);fill-opacity:1;">
  <use xlink:href="#glyph0-1" x="186.460938" y="164.287109"/>
</g>
<path style="fill:none;stroke-width:1.2;stroke-linecap:butt;stroke-linejoin:miter;stroke:rgb(0%,0%,100%);stroke-opacity:1;stroke-miterlimit:10;" d="M 239.546875 146.363281 L 235.566406 132.191406 "/>
<path style="fill:none;stroke-width:1.2;stroke-linecap:butt;stroke-linejoin:miter;stroke:rgb(0%,0%,0%);stroke-opacity:1;stroke-miterlimit:10;" d="M 235.566406 132.191406 L 231.585938 118.023438 "/>
<path style=" stroke:none;fill-rule:nonzero;fill:rgb(100%,100%,100%);fill-opacity:1;" d="M 230.546875 139.363281 L 248.546875 139.363281 L 248.546875 153.363281 L 230.546875 153.363281 Z M 230.546875 139.363281 "/>
<g style="fill:rgb(0%,0%,100%);fill-opacity:1;">
  <use xlink:href="#glyph0-1" x="230.546875" y="150.501953"/>
  <use xlink:href="#glyph0-2" x="239.523438" y="150.501953"/>
</g>
<path style="fill:none;stroke-width:1.2;stroke-linecap:butt;stroke-linejoin:miter;stroke:rgb(0%,0%,0%);stroke-opacity:1;stroke-miterlimit:10;" d="M 231.585938 118.023438 L 252.148438 96.960938 "/>
<path style="fill:none;stroke-width:1.2;stroke-linecap:butt;stroke-linejoin:miter;stroke:rgb(0%,0%,0%);stroke-opacity:1;stroke-miterlimit:10;" d="M 252.148438 96.960938 L 248.167969 82.792969 "/>
<path style="fill:none;stroke-width:1.2;stroke-linecap:butt;stroke-linejoin:miter;stroke:rgb(100%,0%,0%);stroke-opacity:1;stroke-miterlimit:10;" d="M 248.167969 82.792969 L 244.1875 68.621094 "/>
<path style="fill:none;stroke-width:1.2;stroke-linecap:butt;stroke-linejoin:miter;stroke:rgb(100%,0%,0%);stroke-opacity:1;stroke-miterlimit:10;" d="M 244.1875 68.621094 L 254.46875 58.089844 "/>
<path style="fill:none;stroke-width:1.2;stroke-linecap:butt;stroke-linejoin:miter;stroke:rgb(0%,0%,0%);stroke-opacity:1;stroke-miterlimit:10;" d="M 254.46875 58.089844 L 264.75 47.558594 "/>
<path style=" stroke:none;fill-rule:nonzero;fill:rgb(100%,100%,100%);fill-opacity:1;" d="M 239.1875 61.621094 L 249.1875 61.621094 L 249.1875 75.621094 L 239.1875 75.621094 Z M 239.1875 61.621094 "/>
<g style="fill:rgb(100%,0%,0%);fill-opacity:1;">
  <use xlink:href="#glyph0-3" x="239.1875" y="72.759766"/>
</g>
</g>
</svg>

<svg xmlns="http://www.w3.org/2000/svg" xmlns:xlink="http://www.w3.org/1999/xlink" width="300pt" height="300pt" viewBox="0 0 300 300"><defs><symbol overflow="visible"><path d="M.594 2.125V-8.47h6V2.126zm.672-.672h4.671V-7.78h-4.67zm0 0"/></symbol><symbol overflow="visible" id="a"><path d="M1.172-8.75h1.594l3.89 7.313V-8.75h1.14V0H6.204L2.328-7.313V0H1.172zm0 0"/></symbol><symbol overflow="visible" id="b"><path d="M1.172-8.75H2.36v3.594h4.296V-8.75h1.188V0H6.656v-4.172H2.36V0H1.17zm0 0"/></symbol><symbol overflow="visible" id="c"><path d="M4.734-7.953c-.867 0-1.554.324-2.062.97-.5.635-.75 1.51-.75 2.624 0 1.094.25 1.965.75 2.61.508.637 1.195.953 2.062.953.852 0 1.532-.316 2.032-.953.507-.645.765-1.516.765-2.61 0-1.113-.257-1.988-.764-2.624-.5-.645-1.18-.97-2.032-.97zm0-.953c1.22 0 2.192.414 2.922 1.234.74.824 1.11 1.93 1.11 3.313 0 1.376-.37 2.477-1.11 3.298C6.926-.24 5.953.17 4.734.17c-1.23 0-2.214-.41-2.953-1.234C1.04-1.882.673-2.984.673-4.36c0-1.382.367-2.488 1.11-3.312.738-.82 1.722-1.234 2.952-1.234zm0 0"/></symbol></defs><g><path fill="#fff" d="M0 0h300v300H0z"/><path d="M47.852 123.77l3.98 14.168" stroke-width="1.2" stroke="#000" stroke-miterlimit="10" fill="none"/><path d="M51.832 137.938l3.98 14.17M55.813 152.11L45.53 162.64" stroke-width="1.2" stroke="#00f" stroke-miterlimit="10" fill="none"/><path d="M45.53 162.64l-10.28 10.532" stroke-width="1.2" stroke="#000" stroke-miterlimit="10" fill="none"/><path d="M55.813 152.11l14.26 3.636" stroke-width="1.2" stroke="#00f" stroke-miterlimit="10" fill="none"/><path d="M70.074 155.746l14.258 3.637" stroke-width="1.2" stroke="#000" stroke-miterlimit="10" fill="none"/><path d="M51.813 145.11h9v14h-9zm0 0" fill="#fff"/><use xlink:href="#a" x="51.813" y="156.248" fill="#00f"/><path d="M84.332 159.383l20.563-21.063M91.348 162.117l16.45-16.85M92.293 187.723l-7.96-28.34M104.895 138.32l28.523 7.278M133.418 145.598l7.96 28.336M127.547 150.305l6.367 22.668M141.38 173.934L120.815 195M141.38 173.934l28.518 7.277M120.816 195l-28.523-7.277M119.676 187.56l-22.817-5.822M169.898 181.21l3.98 14.17" stroke-width="1.2" stroke="#000" stroke-miterlimit="10" fill="none"/><path d="M173.88 195.38l3.98 14.17" stroke-width="1.2" stroke="#00f" stroke-miterlimit="10" fill="none"/><path d="M177.363 182.172l3.184 11.336" stroke-width="1.2" stroke="#000" stroke-miterlimit="10" fill="none"/><path d="M180.547 193.508l3.183 11.336M190.46 160.148l-10.28 10.532" stroke-width="1.2" stroke="#00f" stroke-miterlimit="10" fill="none"/><path d="M180.18 170.68l-10.282 10.53" stroke-width="1.2" stroke="#000" stroke-miterlimit="10" fill="none"/><path d="M177.86 209.55l14.26 3.637" stroke-width="1.2" stroke="#00f" stroke-miterlimit="10" fill="none"/><path d="M192.12 213.188l14.263 3.636" stroke-width="1.2" stroke="#000" stroke-miterlimit="10" fill="none"/><path d="M173.86 202.55h9v14h-9zm0 0" fill="#fff"/><use xlink:href="#a" x="173.859" y="213.689" fill="#00f"/><path d="M206.383 216.824l7.957 28.34M213.844 217.785l6.367 22.672M226.94 195.762l-20.557 21.062M214.34 245.164l28.523 7.277M242.863 252.44l20.563-21.06M239.965 245.496l16.45-16.85M263.426 231.38l-7.96-28.34M255.465 203.04l-28.524-7.278M250.902 209.023l-22.82-5.82M226.94 195.762l-7.956-28.336M218.984 167.426l-14.26-3.64" stroke-width="1.2" stroke="#000" stroke-miterlimit="10" fill="none"/><path d="M204.723 163.785l-14.262-3.637" stroke-width="1.2" stroke="#00f" stroke-miterlimit="10" fill="none"/><path d="M214.418 173.406l-11.406-2.91" stroke-width="1.2" stroke="#000" stroke-miterlimit="10" fill="none"/><path d="M203.012 170.496l-11.41-2.91" stroke-width="1.2" stroke="#00f" stroke-miterlimit="10" fill="none"/><path d="M218.984 167.426l10.282-10.53" stroke-width="1.2" stroke="#000" stroke-miterlimit="10" fill="none"/><path d="M229.266 156.895l10.28-10.532" stroke-width="1.2" stroke="#00f" stroke-miterlimit="10" fill="none"/><path d="M186.46 153.148h9v14h-9zm0 0" fill="#fff"/><use xlink:href="#a" x="186.461" y="164.287" fill="#00f"/><path d="M239.547 146.363l-3.98-14.172" stroke-width="1.2" stroke="#00f" stroke-miterlimit="10" fill="none"/><path d="M235.566 132.19l-3.98-14.167" stroke-width="1.2" stroke="#000" stroke-miterlimit="10" fill="none"/><path d="M230.547 139.363h18v14h-18zm0 0" fill="#fff"/><g fill="#00f"><use xlink:href="#a" x="230.547" y="150.502"/><use xlink:href="#b" x="239.523" y="150.502"/></g><path d="M231.586 118.023l20.562-21.062M252.148 96.96l-3.98-14.167" stroke-width="1.2" stroke="#000" stroke-miterlimit="10" fill="none"/><path d="M248.168 82.793l-3.98-14.172M244.188 68.62l10.28-10.53" stroke-width="1.2" stroke="#f00" stroke-miterlimit="10" fill="none"/><path d="M254.47 58.09l10.28-10.53" stroke-width="1.2" stroke="#000" stroke-miterlimit="10" fill="none"/><path d="M239.188 61.62h10v14h-10zm0 0" fill="#fff"/><use xlink:href="#c" x="239.188" y="72.76" fill="#f00"/></g></svg>
